Hatter/scalable/apps/elementary-test.svg

<?xml version="1.0" encoding="UTF-8"?>
<svg id="svg3" width="64" height="64" version="1.1" viewBox="0 0 16.933 16.933" xmlns="http://www.w3.org/2000/svg">
 <defs id="defs3">
  <filter id="filter1057" x="-.027" y="-.027" width="1.054" height="1.054" color-interpolation-filters="sRGB">
   <feGaussianBlur id="feGaussianBlur1" stdDeviation="0.61875"/>
  </filter>
  <linearGradient id="linearGradient1053" x1="-127" x2="-127" y1="60" y2="5" gradientTransform="matrix(.26458 0 0 .26458 34.793 -.1351)" gradientUnits="userSpaceOnUse">
   <stop id="stop1" stop-color="#323741" offset="0"/>
   <stop id="stop2" stop-color="#465064" offset="1"/>
  </linearGradient>
 </defs>
 <rect id="rect8" transform="matrix(.26458 0 0 .26458 -6e-5 -6.03e-5)" x="4.5" y="4.5" width="55" height="55" ry="15" fill="#141414" filter="url(#filter1057)" opacity=".3" stroke-linecap="round" stroke-width="2.7444"/>
 <rect id="rect9" x="1.1905" y="1.1905" width="14.552" height="14.552" ry="3.9687" fill="url(#linearGradient1053)" stroke-linecap="round" stroke-width=".72611"/>
 <path id="path1-7" d="m8.5316 4.233a4.234 4.234 0 1 0 0 8.467 4.234 4.234 0 0 0 0-8.467zm0 0.353a3.882 3.882 0 0 1 3.735 2.826 6.733 6.733 0 0 1-1.645 2.145c-0.33 0.285-0.689 0.54-1.086 0.719-0.398 0.179-0.835 0.28-1.27 0.255a2.197 2.197 0 0 1-0.936-0.268 7.061 7.061 0 0 0 2.004-1.616c0.368-0.43 0.69-0.92 0.813-1.473a2 2 0 0 0 0.015-0.843 1.558 1.558 0 0 0-0.38-0.748 1.526 1.526 0 0 0-0.705-0.418 1.854 1.854 0 0 0-0.823-0.03c-0.545 0.1-1.03 0.416-1.42 0.809-0.688 0.692-1.113 1.67-1.035 2.642 0.04 0.486 0.202 0.964 0.482 1.364 0.062 0.089 0.13 0.174 0.204 0.255a6.348 6.348 0 0 1-1.255 0.3 3.88 3.88 0 0 1 3.302-5.92zm0.024 0.784c0.273 0 0.548 0.083 0.765 0.247 0.197 0.148 0.342 0.36 0.424 0.59 0.083 0.232 0.104 0.484 0.076 0.728-0.057 0.488-0.303 0.936-0.6 1.327a5.723 5.723 0 0 1-2.25 1.75 2.004 2.004 0 0 1-0.425-0.521c-0.231-0.41-0.307-0.897-0.262-1.365 0.044-0.468 0.205-0.92 0.421-1.338 0.25-0.485 0.592-0.944 1.07-1.207 0.238-0.132 0.509-0.212 0.781-0.211zm3.821 2.577a3.88 3.88 0 0 1-6.837 2.992c0.44-0.1 0.87-0.243 1.281-0.426 0.18 0.138 0.38 0.25 0.59 0.331 0.61 0.234 1.3 0.2 1.917-0.014 0.616-0.213 1.163-0.596 1.64-1.041a7.056 7.056 0 0 0 1.41-1.842z" fill="#fff"/>
 <g id="g6" transform="translate(4.2332 4.2332)">
  <circle id="circle5" cx="8.4665" cy="8.4665" r="4.2333" fill="#f55" stroke-linecap="round" stroke-width=".60496"/>
  <g id="g5" transform="matrix(1.3154 0 0 1.3154 -8.2395 -8.2395)">
   <path id="path4" d="m9.683 9.683h6.034v6.034h-6.034z" fill="none"/>
   <path id="path5" transform="matrix(.25142 0 0 .25142 9.683 9.683)" d="m20 8h-2.81a5.985 5.985 0 0 0-1.82-1.96l1.63-1.63-1.41-1.41-2.17 2.17c-0.46-0.11-0.93-0.17-1.42-0.17s-0.96 0.06-1.41 0.17l-2.18-2.17-1.41 1.41 1.62 1.63c-0.74 0.51-1.36 1.18-1.81 1.96h-2.81v2h2.09c-0.05 0.33-0.09 0.66-0.09 1v1h-2v2h2v1c0 0.34 0.04 0.67 0.09 1h-2.09v2h2.81c1.04 1.79 2.97 3 5.19 3s4.15-1.21 5.19-3h2.81v-2h-2.09c0.05-0.33 0.09-0.66 0.09-1v-1h2v-2h-2v-1c0-0.34-0.04-0.67-0.09-1h2.09zm-6 8h-4v-2h4zm0-4h-4v-2h4z" fill="#fff"/>
  </g>
 </g>
</svg>

<?xml version="1.0" encoding="UTF-8" standalone="no"?>
<svg
   width="64"
   height="64"
   viewBox="0 0 16.933 16.933"
   version="1.1"
   id="svg3"
   sodipodi:docname="elementary-test.svg"
   inkscape:version="1.3.2 (091e20ef0f, 2023-11-25, custom)"
   xmlns:inkscape="http://www.inkscape.org/namespaces/inkscape"
   xmlns:sodipodi="http://sodipodi.sourceforge.net/DTD/sodipodi-0.dtd"
   xmlns="http://www.w3.org/2000/svg"
   xmlns:svg="http://www.w3.org/2000/svg">
  <defs
     id="defs3">
    <filter
       id="filter1057"
       x="-0.026999999"
       y="-0.026999999"
       width="1.054"
       height="1.054"
       color-interpolation-filters="sRGB">
      <feGaussianBlur
         stdDeviation="0.61875"
         id="feGaussianBlur1" />
    </filter>
    <linearGradient
       id="linearGradient1053"
       x1="-127"
       x2="-127"
       y1="60"
       y2="5"
       gradientTransform="matrix(0.26458,0,0,0.26458,34.7929,-0.1351001)"
       gradientUnits="userSpaceOnUse">
      <stop
         stop-color="#323741"
         offset="0"
         id="stop1" />
      <stop
         stop-color="#465064"
         offset="1"
         id="stop2" />
    </linearGradient>
  </defs>
  <sodipodi:namedview
     id="namedview3"
     pagecolor="#ffffff"
     bordercolor="#000000"
     borderopacity="0.25"
     inkscape:showpageshadow="2"
     inkscape:pageopacity="0.0"
     inkscape:pagecheckerboard="0"
     inkscape:deskcolor="#d1d1d1"
     inkscape:zoom="2.1765631"
     inkscape:cx="-26.647516"
     inkscape:cy="11.485998"
     inkscape:window-width="1920"
     inkscape:window-height="995"
     inkscape:window-x="0"
     inkscape:window-y="0"
     inkscape:window-maximized="1"
     inkscape:current-layer="svg3" />
  <rect
     transform="matrix(0.26458,0,0,0.26458,-6e-5,-6.03e-5)"
     x="4.5"
     y="4.5"
     width="55"
     height="55"
     ry="15"
     fill="#141414"
     filter="url(#filter1057)"
     opacity="0.3"
     stroke-linecap="round"
     stroke-width="2.7444"
     id="rect8" />
  <rect
     x="1.1904999"
     y="1.1904999"
     width="14.552"
     height="14.552"
     ry="3.9686999"
     fill="url(#linearGradient1053)"
     stroke-linecap="round"
     stroke-width="0.72611"
     id="rect9"
     style="fill:url(#linearGradient1053)" />
  <path
     fill="#ffffff"
     d="m 8.531567,4.2329999 a 4.234,4.234 0 1 0 0,8.4670001 4.234,4.234 0 0 0 0,-8.4670001 z m 0,0.353 a 3.882,3.882 0 0 1 3.735,2.826 6.733,6.733 0 0 1 -1.645,2.145 c -0.33,0.285 -0.689,0.5400001 -1.086,0.7190001 -0.398,0.179 -0.835,0.28 -1.27,0.255 a 2.197,2.197 0 0 1 -0.936,-0.268 7.061,7.061 0 0 0 2.004,-1.6160001 c 0.368,-0.43 0.69,-0.92 0.813,-1.473 a 2,2 0 0 0 0.015,-0.843 1.558,1.558 0 0 0 -0.38,-0.748 1.526,1.526 0 0 0 -0.705,-0.418 1.854,1.854 0 0 0 -0.823,-0.03 c -0.545,0.1 -1.03,0.416 -1.42,0.809 -0.688,0.692 -1.113,1.67 -1.035,2.642 0.04,0.486 0.202,0.964 0.482,1.364 0.062,0.089 0.13,0.1740001 0.204,0.2550001 a 6.348,6.348 0 0 1 -1.255,0.3 3.88,3.88 0 0 1 3.302,-5.9200001 z m 0.024,0.784 c 0.273,0 0.548,0.083 0.765,0.247 0.197,0.148 0.342,0.36 0.424,0.59 0.083,0.232 0.104,0.484 0.076,0.728 -0.057,0.488 -0.303,0.936 -0.6,1.327 a 5.723,5.723 0 0 1 -2.25,1.7500001 2.004,2.004 0 0 1 -0.425,-0.5210001 c -0.231,-0.41 -0.307,-0.897 -0.262,-1.365 0.044,-0.468 0.205,-0.92 0.421,-1.338 0.25,-0.485 0.592,-0.944 1.07,-1.207 0.238,-0.132 0.509,-0.212 0.781,-0.211 z m 3.821,2.577 A 3.88,3.88 0 0 1 5.539567,10.939 c 0.44,-0.1 0.87,-0.243 1.281,-0.426 0.18,0.138 0.38,0.25 0.59,0.331 0.61,0.234 1.3,0.2 1.917,-0.014 0.616,-0.213 1.163,-0.596 1.64,-1.0410001 a 7.056,7.056 0 0 0 1.41,-1.842 z"
     id="path1-7" />
  <g
     id="g6"
     transform="translate(4.2332496,4.2332496)">
    <circle
       cx="8.4665003"
       cy="8.4665003"
       r="4.2332501"
       stroke-linecap="round"
       stroke-width="0.604958"
       id="circle5"
       style="fill:#ff5555;fill-opacity:1" />
    <g
       style="fill:#000000"
       id="g5"
       transform="matrix(1.3154365,0,0,1.3154365,-8.2395435,-8.2395435)">
      <path
         fill="none"
         d="m 9.683,9.683 h 6.034 v 6.034 H 9.683 Z"
         id="path4" />
      <path
         d="M 20,8 H 17.19 A 5.985,5.985 0 0 0 15.37,6.04 L 17,4.41 15.59,3 13.42,5.17 C 12.96,5.06 12.49,5 12,5 11.51,5 11.04,5.06 10.59,5.17 L 8.41,3 7,4.41 8.62,6.04 C 7.88,6.55 7.26,7.22 6.81,8 H 4 v 2 H 6.09 C 6.04,10.33 6,10.66 6,11 v 1 H 4 v 2 h 2 v 1 c 0,0.34 0.04,0.67 0.09,1 H 4 v 2 h 2.81 c 1.04,1.79 2.97,3 5.19,3 2.22,0 4.15,-1.21 5.19,-3 H 20 V 16 H 17.91 C 17.96,15.67 18,15.34 18,15 v -1 h 2 v -2 h -2 v -1 c 0,-0.34 -0.04,-0.67 -0.09,-1 H 20 Z m -6,8 h -4 v -2 h 4 z m 0,-4 h -4 v -2 h 4 z"
         style="fill:#ffffff"
         transform="matrix(0.25142,0,0,0.25142,9.683,9.683)"
         id="path5" />
    </g>
  </g>
</svg>
